img/Close-X.svg

<svg fill="none" height="20" viewBox="0 0 20 20" width="20" xmlns="http://www.w3.org/2000/svg"><path d="m3.79688 16.5703c-.1823-.1875-.30469-.4062-.36719-.6562-.05729-.25-.05729-.4974 0-.7422.0625-.2448.17969-.4531.35156-.625l4.17187-4.1797-4.17187-4.16408c-.17187-.17187-.28646-.3802-.34375-.625-.05729-.25-.05729-.5 0-.75s.17708-.46614.35938-.64843c.18229-.1875.39843-.3099.64843-.36719.25521-.05729.50521-.05729.75 0 .25.05729.46094.17188.63281.34375l4.17188 4.16406 4.1641-4.15625c.177-.17708.388-.29427.6328-.35156.2448-.0625.4896-.0625.7343 0 .25.0625.4662.1875.6485.375.1875.18229.3125.39583.375.64062.0625.2448.0625.49219 0 .74219-.0573.24479-.1745.45573-.3516.63281l-4.1562 4.16408 4.1562 4.1719c.1771.177.2943.3906.3516.6406.0625.2448.0625.4922 0 .7422-.0625.2448-.1875.4583-.375.6406-.1823.1823-.3985.3047-.6485.3672-.2447.0625-.4895.0651-.7343.0078s-.4558-.1771-.6328-.3594l-4.1641-4.164-4.17188 4.1718c-.17187.1719-.38281.2865-.63281.3438-.24479.0625-.49219.0625-.74219 0-.25-.0573-.46874-.1771-.65624-.3594z" fill="#2c2e2c"/></svg>

<svg width="20" height="20" viewBox="0 0 20 20" fill="none" xmlns="http://www.w3.org/2000/svg">
<path d="M3.79688 16.5703C3.61458 16.3828 3.49219 16.1641 3.42969 15.9141C3.3724 15.6641 3.3724 15.4167 3.42969 15.1719C3.49219 14.9271 3.60938 14.7188 3.78125 14.5469L7.95312 10.3672L3.78125 6.20312C3.60938 6.03125 3.49479 5.82292 3.4375 5.57812C3.38021 5.32812 3.38021 5.07812 3.4375 4.82812C3.49479 4.57812 3.61458 4.36198 3.79688 4.17969C3.97917 3.99219 4.19531 3.86979 4.44531 3.8125C4.70052 3.75521 4.95052 3.75521 5.19531 3.8125C5.44531 3.86979 5.65625 3.98438 5.82812 4.15625L10 8.32031L14.1641 4.16406C14.3411 3.98698 14.5521 3.86979 14.7969 3.8125C15.0417 3.75 15.2865 3.75 15.5312 3.8125C15.7812 3.875 15.9974 4 16.1797 4.1875C16.3672 4.36979 16.4922 4.58333 16.5547 4.82812C16.6172 5.07292 16.6172 5.32031 16.5547 5.57031C16.4974 5.8151 16.3802 6.02604 16.2031 6.20312L12.0469 10.3672L16.2031 14.5391C16.3802 14.7161 16.4974 14.9297 16.5547 15.1797C16.6172 15.4245 16.6172 15.6719 16.5547 15.9219C16.4922 16.1667 16.3672 16.3802 16.1797 16.5625C15.9974 16.7448 15.7812 16.8672 15.5312 16.9297C15.2865 16.9922 15.0417 16.9948 14.7969 16.9375C14.5521 16.8802 14.3411 16.7604 14.1641 16.5781L10 12.4141L5.82812 16.5859C5.65625 16.7578 5.44531 16.8724 5.19531 16.9297C4.95052 16.9922 4.70312 16.9922 4.45312 16.9297C4.20312 16.8724 3.98438 16.7526 3.79688 16.5703Z" fill="#2C2E2C"/>
</svg>
